!!!OTL: Des Deutschen Vaterland.
!!!OTL-incipit:WAS IST DES DEUTSCHEN VATERLAND
!!!COM: J. Cotta
!!!ARE: Europa, Mitteleuropa, Deutschland
!!!SCT: F0433
!!!TXL: @@DE
!!!YEM: Copyright 1995, estate of Helmut Schaffrath.
**kern	**text
*ICvox	*
*M4/4	*
*met(c)	*
*k[f#c#]	*
*D:	*
!LO:TX:a:t=Nicht zu schnell.	!
!LO:TX:a:t=Volksweise für ver Männerstimmen.	!
{4a	1._Was
=1	=1
4.dd/	iſt
8b/	des
8a	Deutſchen
8b/	.
8a	Va-
8g	-ter-
=2	=2
(4g	-land?
4f#)	.
4r}	.
{4dd/	iſt's
=3	=3
8.dd/	Preußenland?
16b/	.
4b/	.
4r	.
4dd/	iſt's
=4	=4
8.dd/	Schwabenland?
16a	.
4a	.
4r}	.
{4dd/	iſt's,
=5	=5
4.cc#/	wo
8cc#/	am
4.dd/	Rhein
8dd/	die
=6	=6
8.ee/	Redeglübet
16cc#/	.
4a	.
4r}	.
{4a	iſt's
=7	=7
4.dd/	wo
8dd/	am
4.ee/	Belt
8ee/	die
=8	=8
8.ff#/	Möve
16ee/	.
4dd/	ʒieht?
4r}	.
{4a	O
=9	=9
4.ff#/	nein,
8ee/	o
8gg/	nein,
8ff#/	o
8ee/	nein!
8dd/	o
=10	=10
(4dd/	nein!
4b/)	.
8r}	.
{8b/	ſein
8dd/	Vater-
8b/	.
=11	=11
4.a	-land
8dd/	muß
8ff#/L	grö-
8eeJ	.
8dd/L	-ßer
8cc#J	.
=12	=12
4dd/	ſein.
4r	.
4r}	.
{4a	O
=13	=13
4.ff#/	nein,
8ee/	o
8gg/	nein,
8ff#/	o
8ee/	nein!
8dd/	o
=14	=14
(4dd/	nein!
4b/)	.
8r}	.
{8b/	ſein
8dd/	Vater-
8b/	.
=15	=15
4.a	-land
8dd/	muß
8ff#/L	grö-
8eeJ	.
8dd/L	-ßer
8cc#J	.
=16	=16
4dd/	ſein.
4r	.
4r}	.
==	==
!!!AGN: Vaterlands -, Heimat - Lied, nationalistisch
!!!ONB: ESAC (Essen Associative Code) Database: FINK
!!!AMT: simple quadruple
!!!AIN: vox
!!!EED: Helmut Schaffrath
!!!EEV: 1.0
!!Text: E. M. Arndt
!!!GTL: Vaterlands- und Heimathslieder.
!!!source: Musikalischer Hausschatz der Deutschen. Eine Sammlung von über 1000 Liedern und Gesängen mit Singstimmen und Klavierbegleitung. Leipzig, Litterarisches Verlags-Haus.
!!!page: 268
!!!ENC: Anna Maria Matuszewska
!!!EEV: 2025/03/14
*-	*-
